packages/ffe-icons/icons/filled/md/stairs.svg

<svg xmlns="http://www.w3.org/2000/svg" height="24" viewBox="0 -960 960 960" width="24"><path d="M406.999-383.001H480q12.75 0 21.374-8.625 8.625-8.624 8.625-21.374v-103.001H583q12.75 0 21.375-8.624 8.624-8.625 8.624-21.375v-104.001H680q12.75 0 21.375-8.628 8.624-8.629 8.624-21.384 0-12.756-8.624-21.371-8.625-8.615-21.375-8.615h-97q-12.75 0-21.375 8.624-8.624 8.625-8.624 21.375v103.001H480q-12.75 0-21.374 8.624-8.625 8.625-8.625 21.375v103.001H377q-12.75 0-21.374 8.625-8.625 8.624-8.625 21.374v104.001H280q-12.75 0-21.374 8.628-8.625 8.629-8.625 21.384 0 12.756 8.625 21.371 8.624 8.615 21.374 8.615h97q12.75 0 21.374-8.625 8.625-8.624 8.625-21.374v-103.001Zm-194.69 243q-30.308 0-51.308-21t-21-51.308v-535.382q0-30.308 21-51.308t51.308-21h535.382q30.308 0 51.308 21t21 51.308v535.382q0 30.308-21 51.308t-51.308 21H212.309Z"/></svg>

<svg xmlns="http://www.w3.org/2000/svg" height="24" viewBox="0 -960 960 960" width="24"><path d="M407-383h73q12.75 0 21.37-8.63Q510-400.25 510-413v-103h73q12.75 0 21.37-8.63Q613-533.25 613-546v-104h67q12.75 0 21.37-8.63 8.63-8.63 8.63-21.38 0-12.76-8.63-21.37Q692.75-710 680-710h-97q-12.75 0-21.37 8.63Q553-692.75 553-680v103h-73q-12.75 0-21.37 8.63Q450-559.75 450-547v103h-73q-12.75 0-21.37 8.63Q347-426.75 347-414v104h-67q-12.75 0-21.37 8.63-8.63 8.63-8.63 21.38 0 12.76 8.63 21.37Q267.25-250 280-250h97q12.75 0 21.37-8.63Q407-267.25 407-280v-103ZM212.31-140Q182-140 161-161q-21-21-21-51.31v-535.38Q140-778 161-799q21-21 51.31-21h535.38Q778-820 799-799q21 21 21 51.31v535.38Q820-182 799-161q-21 21-51.31 21H212.31Z"/></svg>
